!!!!SEGMENT: pl-kozmzk--mzk-m-31--007_szymanowska-maria--preludium-f-dur.krn
!!!cenid: 18xx:443
!!!COM: Szymanowska, Maria
!!!COM-rismID: pe140138
!!!CDT: 1789/12/14-1831/07/25
!!!CNT: Polish
!!!GTL: Vingt Exercices et Préludes pour le Pianoforte
!!!OTL: Preludium F-dur
!!!OMV: 007
!!!PDT: 1819
!!!AGN: Secular; Prelude
!!!SMS-siglum: PL-KOZmzk
!!!SMS-shelfmark: mzk/m/31
!!!SMS-shelfwork: 001-007 G
!!!SMS-variant:
!!!SMS-altvar:
!!!NIFC-rismSourceID: 1001025323
!!!NIFC-rismChildID: 1001025330
!!!NIFC-islandoraID: pl-kozmzk:6325
!!!URL-pdf-islandora: https://repozytorium.nifc.pl/islandora/object/pl-kozmzk%3A6325/datastream/PDF/view
!!!URL-scan: https://polish.musicsources.pl/pl/lokalizacje/galeria/rekopisy/462 @EN{Scan on Polish Music Sources Website} @PL{Skany w portalu Dziedzictwo Muzyki Polskiej w otwartym dostępie}
!!!IIIF:
!!!ONB-nifc:
!!!AIN: 1 piano
!!!key: F
!!!filter-modern: sic -sq | shed -k -e "s/LO:N:vis/LO:n:vis:/L" | shed -e "s/TX(.*):t=P:/tx$1:t=P:/LG" | shed -e "s/:rj/:RJ/L" | shed -k -e "s/([^a-gA-Gn#X-])[<>]/$1/g" | shed -e "s/LO:DY:(a|b|rj)/LO:dy:$1/L" | shed -e "s/-//B"  | modori -m
**kern	**fing	**kern	**fing	**dynam
*part1	*	*part1	*	*part1
*staff2	*	*staff1	*	*
*I"Piano	*	*I"Piano	*	*
*I'P-no	*	*I'P-no	*	*
*mI"Pianoforte	*	*mI"Pianoforte	*	*
*mI'pf	*	*mI'pf	*	*
*Ipiano	*	*Ipiano	*	*
*ICklav	*	*ICklav	*	*
*IGsolo	*	*IGsolo	*	*
*clefF4	*	*clefG2	*	*
*k[b-]	*	*k[b-]	*	*
*F:	*	*F:	*	*
*M6/8	*	*M6/8	*	*
=1	=1	=1	=1	=1
!!!OMD:
!!!OMD-mod: Scherzando
*	*	*	*	*
!	!	!LO:TX:a:t=Scherzando:mod=	!	!
8r	.	16r	.	.
.	.	(16g#X/LL	2	.
8r	.	16b-/	4	.
.	.	16a/JJ)	3	.
=2	=2	=2	=2	=2
16qFF/	5	.	.	.
16F\LL	1	8f/	.	.
16A\	2	.	.	.
16c^>\JJ	1	16r	.	.
16r	.	(16b-/LL	.	.
8r	.	16dd/	.	.
.	.	16cc/JJ)	.	.
16qFF/	.	.	.	.
16F\LL	.	8a/	.	.
16A\	.	.	.	.
16c^\JJ	.	16r	.	.
16r	.	16ee\LL	.	.
8r	.	16gg\	.	.
.	.	16ff\JJ	.	.
=3	=3	=3	=3	=3
16qAA/	.	.	.	.
16A\LL	.	(16ccc\LL	1	.
16c\	.	16gg#X\	.	.
16f^\JJ	.	16aa\	.	.
16r	.	16ee\	.	.
8r	.	16ggn\	.	.
.	.	16ff\JJ)	.	.
16qBB-/	.	.	.	.
16B-\LL	.	8dd\	.	.
16d\	.	.	.	.
16g^\JJ	.	16r	.	.
16r	.	(16cc#X\LL	.	.
8r	.	16dd\	.	.
.	.	16b-\JJ)	.	.
=4	=4	=4	=4	=4
16qBB-	.	.	.	.
16B-\LL	.	8g/	.	.
16d\	.	.	.	.
16g\JJ	.	16r	.	.
16r	.	(16ff#X\LL	.	.
8r	.	16gg\	.	.
.	.	16dd\JJ)	.	.
16qBB-	.	.	.	.
16B-\LL	.	8b-/	.	.
16d\	.	.	.	.
16g\JJ	.	16r	.	.
16r	.	(16bb-\LL	.	.
8r	.	16aa\	.	.
.	.	16gg\JJ)	.	.
=5	=5	=5	=5	=5
16qCC/	.	.	.	.
16C\LL	.	16ff\LL	.	.
16B-\	.	16ee\	.	.
16c\JJ	.	16dd\	.	.
16r	.	16cc\	.	.
8r	.	16b-\ 16ee	.	rfz
.	.	16cc\JJ	.	.
16qFF/	.	.	.	.
16F\LL	.	8a\ 8ff	.	.
16A\	.	.	.	.
16c\JJ	.	16r	.	.
16r	.	16g#X/LL	.	.
8r	.	16b-/	.	.
.	.	16a/JJ	.	.
!!LO:LB:g=original
=6	=6	=6	=6	=6
16qFF/	.	.	.	.
16F\LL	.	8f/	.	.
16A\	.	.	.	.
16c\JJ	.	16r	.	.
16r	.	16bn/LL	.	.
8r	.	16dd/	.	.
.	.	16cc/JJ	.	.
16qFF/	.	.	.	.
16F\LL	.	8a/	.	.
16A\	.	.	.	.
16c\JJ	.	16r	.	.
16r	.	16ee\LL	.	.
8r	.	16gg\	.	.
.	.	16ff\JJ	.	.
=7	=7	=7	=7	=7
16qAA/	.	16qcc/	.	.
16A\LL	.	8ccc\L	.	.
16c\	.	.	.	.
16f\JJ	.	16bb-\L	.	.
16r	.	16aa\	.	.
8r	.	16gg\	.	.
.	.	16ff\JJ	.	.
16qBB-/	.	.	.	.
16B-\LL	.	16ee\LL	.	.
16d\	.	16dd\JJ	.	.
16g\JJ	.	16r	.	.
16r	.	16cc#X\LL	.	.
8r	.	16dd\	.	.
.	.	16b-\JJ	.	.
=8	=8	=8	=8	=8
16qBB-/	.	.	.	.
16B-\LL	.	8g/	.	.
16d\	.	.	.	.
16g\JJ	.	16r	.	.
16r	.	16ff#X\LL	.	.
8r	.	16gg\	.	.
.	.	16dd\JJ	.	.
16qBB-/	.	.	.	.
16B-\LL	.	8b-\	.	.
16d\	.	.	.	.
16g\JJ	.	16r	.	.
16r	.	16bb-\LL	.	.
8r	.	16aa\	.	.
.	.	16gg\JJ	.	.
=9	=9	=9	=9	=9
16qCC/	.	.	.	.
16C\LL	.	16ff\LL	.	.
16B-\	.	16ee\	.	.
16c\JJ	.	16dd\	.	.
16r	.	16cc\	.	.
8r	.	16b-\ 16ee	.	.
.	.	16cc\JJ	.	.
16qFF/	.	.	.	.
16F\LL	.	8a\ 8ff	.	.
16A\	.	.	.	.
16c\JJ	.	16r	.	.
16r	.	16g#X/LL	.	.
8r	.	16a/	.	.
.	.	16cc#X/JJ	.	.
=10	=10	=10	=10	=10
16qC#X/	.	.	.	.
16c#X\LL	.	8ee\	.	.
16g\	.	.	.	.
16a\JJ	.	16r	.	.
16r	.	16gg#X\LL	.	.
8r	.	16bb-\	.	.
.	.	16aa\JJ	.	.
!	!	!LO:TX:b:i:t=cre      -          -                        scen      -      -     do:mod=	!	!
16qD/	.	.	.	.
!	!	!	!	!LO:HP:t=[crescendo]:ext=[cd]:ext=[cd]
16d\LL	.	8dd\ 8ff	.	<
16f\	.	.	.	.
16a\JJ	.	16r	.	.
16r	.	16gg#X\LL	.	.
8r	.	16bb-\	.	.
.	.	16aa\JJ	.	.
!!LO:LB:g=original
=11	=11	=11	=11	=11
16qBBn/	.	.	.	.
16Bn\LL	.	8dd\ 8ff	.	.
16f#X\	.	.	.	.
16g\JJ	.	16r	.	.
16r	.	16ff#X\LL	.	.
8r	.	16aa\	.	.
.	.	16gg\JJ	.	.
16qC/	.	.	.	.
16c\LL	.	8cc\ 8ee	.	.
16e\	.	.	.	.
16g\JJ	.	16r	.	.
16r	.	16ff#X\LL	.	[
8r	.	16aa\	.	.
.	.	16gg\JJ	.	.
=12	=12	=12	=12	=12
16qGG/	.	.	.	.
16G\LL	.	8dd\ 8ff 8bbn	.	f
16d\	.	.	.	.
16f\JJ	.	16r	.	.
16r	.	16bb\LL	.	.
8r	.	16aa\	.	.
.	.	16gg\JJ	.	.
16qGG/	.	.	.	.
16G\LL	.	8cc\L 8ee [8ccc	.	.
16c\	.	.	.	.
16e\JJ	.	16ccc\L]	.	.
16r	.	16bbn\	.	.
8r	.	16aa\	.	.
.	.	16gg\JJ	.	.
=13	=13	=13	=13	=13
16qBBB-/	.	.	.	.
16GG\LL	.	8bn^\L 8dd [8aa	.	.
16BBn\	.	.	.	.
!	!	!LO:TX:b:i:t=di-  mi-  nu-  en-  do:mod=	!	!LO:MO:null:mod=>
16G\JJ	.	16aa\L]	.	.
16r	.	16gg\	.	.
8r	.	16ff\	.	.
.	.	16dd\JJ	.	.
16qCC/	.	.	.	.
16C\LL	.	8e^>/L 8g [8dd	.	.
16B-X\	.	.	.	.
16c\JJ	.	16dd/L]	.	.
16r	.	16cc/	.	.
8r	.	16b-X/	.	.
!	!	!	!	!LO:MO:null:mod=]
.	.	16g/JJ	.	.
=14	=14	=14	=14	=14
!	!	!LO:TX:b:i:t=a tempo	!	!
16qFF/	.	.	.	.
16F\LL	.	8f/	.	.
16A\	.	.	.	.
16c\JJ	.	16r	.	.
16r	.	16bn\LL	.	.
8r	.	16dd\	.	.
.	.	16cc\JJ	.	.
16qFF/	.	.	.	.
16F\LL	.	8a/	.	.
16A\	.	.	.	.
16c\JJ	.	16r	.	.
16r	.	16ee\LL	.	.
8r	.	16gg\	.	.
.	.	16ff\JJ	.	.
=15	=15	=15	=15	=15
16qAA/	.	.	.	.
16A\LL	.	16ccc^\LL	.	.
16c\	.	16gg#X\	.	.
16f\JJ	.	16aa\	.	.
16r	.	16ee\	.	.
8r	.	16ggn\	.	.
.	.	16ff\JJ	.	.
16qBB-/	.	.	.	.
16B-\LL	.	8dd\	.	.
16d\	.	.	.	.
16g\JJ	.	16r	.	.
16r	.	16cc#X\LL	.	.
8r	.	16dd\	.	.
.	.	16b-\JJ	.	.
!!LO:LB:g=original
=16	=16	=16	=16	=16
16qBB-/	.	.	.	.
16B-\LL	.	8g/	.	.
16d\	.	.	.	.
16g\JJ	.	16r	.	.
16r	.	16ff#X\LL	.	.
8r	.	16gg\	.	.
.	.	16dd\JJ	.	.
16qBB-/	.	.	.	.
16B-\LL	.	8b-/	.	.
16d\	.	.	.	.
16g\JJ	.	16r	.	.
!	!	!LO:TX:b:i:t=ritar.	!	!
16r	.	16bb-\LL	.	.
8r;	.	16aa\	.	.
.	.	16gg;\JJ	.	.
=17	=17	=17	=17	=17
16qBB-/	.	.	.	.
16B-\LL	.	8b-/	.	f
16d-X\	.	.	.	.
!	!	!LO:TX:b:i:t=a tempo	!	!
16g\JJ	.	16r	.	.
16r	.	16ff#X\LL	.	.
8r	.	16gg\	.	.
.	.	16ee-X\JJ	.	.
16qEE-X/	.	.	.	.
16E-X\LL	.	8b-\	.	.
16B-\	.	.	.	.
16d-X\JJ	.	16r	.	.
16r	.	16ddd-X\LL	.	.
8r	.	16ccc\	.	.
.	.	16bb-\JJ	.	.
=18	=18	=18	=18	=18
16qAA-X/	.	.	.	.
16A-X\LL	.	8aa-X\	.	f
16c\	.	.	.	.
16e-X\JJ	.	16r	.	.
16r	.	16bn\LL	.	.
8r	.	16cc\	.	.
.	.	16a-X\JJ	.	.
16qAA-/	.	.	.	.
16An\LL	.	8e-X/	.	.
16d\	.	.	.	.
16e-\JJ	.	16r	.	.
16r	.	16dd\LL	.	.
8r	.	16ee-X\	.	.
.	.	16cc\JJ	.	.
=19	=19	=19	=19	=19
16qAA-X/	.	.	.	.
16A-X\LL	.	8a-X/	.	.
16c\	.	.	.	.
16e-X\JJ	.	16r	.	.
16r	.	16ccc\LL	.	.
8r	.	16bb-\	.	.
.	.	16aa-X\JJ	.	.
16qEE-X/	.	.	.	.
16E-X\LL	.	16aan\LL	.	.
16B-\	.	16bb-\JJ	.	.
16d\JJ	.	16r	.	.
16r	.	16any/LL	.	.
8r	.	16b-/	.	.
.	.	16g/JJ	.	.
=20	=20	=20	=20	=20
16qEE-X/	.	.	.	.
16E-X\LL	.	8e-X/	.	.
16B-\	.	.	.	.
16d-X\JJ	.	16r	.	.
16r	.	16cc\LL	.	.
8r	.	16dd-X\	.	.
!!LO:LB:g=original
.	.	16b-\JJ	.	.
16qBB-/	.	.	.	.
16E-\LL	.	8g/	.	.
16B-\	.	.	.	.
16d-X\JJ	.	16r	.	.
16r	.	16ddd-X\LL	.	.
8r	.	16ccc\	.	.
.	.	16bb-\JJ	.	.
=21	=21	=21	=21	=21
16qGG/	.	.	.	.
16G\LL	.	16aa-X\LL	.	.
16B-\	.	16gg\	.	.
16d-X\JJ	.	16ff\	.	.
16r	.	16ee-X\	.	.
8r	.	16ff\	.	.
.	.	16dd-X\JJ	.	.
16qAA-X/	.	.	.	.
16A-X\LL	.	8cc\	.	.
16c\	.	.	.	.
16e-X\JJ	.	16r	.	.
16r	.	(16bn\LL	.	.
8r	.	16dd-X\	.	.
.	.	16cc\JJ)	.	.
=22	=22	=22	=22	=22
16qEEn/	.	.	.	.
16E\LL	.	8g/	.	.
16B-\	.	.	.	.
16c\JJ	.	16r	.	.
16r	.	(16bbn\LL	.	.
8r	.	16ddd-X\	.	.
.	.	16ccc\JJ)	.	.
16qFF/	.	.	.	.
16F\LL	.	8aa-X\	.	.
16A-X\	.	.	.	.
16c\JJ	.	16r	.	.
16r	.	(16a-X/LL	.	.
8r	.	16g/	.	.
.	.	16f/JJ)	.	.
=23	=23	=23	=23	=23
16qDD-X/	.	.	.	.
16D-X\LL	.	8.e/L	.	sf
16F\	.	.	.	.
16Bn\JJ	.	.	.	.
16r	.	(16f/L	.	.
8r	.	16g/	.	.
.	.	16f/JJ)	.	.
16qCC/	.	.	.	.
16C\LL	.	8.e/L	.	.
16E\	.	.	.	.
16c\JJ	.	.	.	.
16r	.	(16g/L	.	.
8r	.	16dd-X^>/	.	.
.	.	16cc/JJ)	.	.
=24	=24	=24	=24	=24
16qDD-X/	.	.	.	.
16D-X\LL	.	8.b-^/L	.	.
16F\	.	.	.	.
16Bn\JJ	.	.	.	.
16r	.	16a-X`/L	.	.
8r	.	16g`/	.	.
.	.	16f`/JJ	.	.
16qCC/	.	.	.	.
16C\LL	.	8.e/L	.	.
16E\	.	.	.	.
16c\JJ	.	.	.	.
16r	.	(16g/L	.	.
8r	.	16dd-X^/	.	.
.	.	16cc/JJ)	.	.
!!LO:LB:g=original
=25	=25	=25	=25	=25
2.DD-X/ 2.D-X	.	16bn\	.	ff
!	!	!	!	!
*	*	*8va	*	*
.	.	16bbn\LL	.	.
!	!	!LO:TX:t=P:problem=zygzakowata ukośna linia	!	!
.	.	16aa-X\	.	.
.	.	16ff\	.	.
.	.	16dd-X\	.	.
.	.	16bn\JJ	.	.
*	*	*X8va	*	*
!	!	!LO:TX:a:t=loco	!	!
.	.	16aa-\LL	.	.
.	.	16ff\	.	.
.	.	16dd-\	.	.
.	.	16b\	.	.
.	.	16a-X\	.	.
.	.	16f\JJ	.	.
=26	=26	=26	=26	=26
!	!	!LO:TX:b:t=ten	!	!
[2.CC/ [2.C	.	(16e\LL	.	.
.	.	16g\	.	.
.	.	16cc\	.	.
.	.	16f\	.	.
.	.	16a-X\	.	.
.	.	16dd\JJ)	.	.
.	.	(16g\LL	.	.
.	.	16b-\	.	.
.	.	16ee\	.	.
.	.	16a-X\	.	.
.	.	16cc\	.	.
.	.	16ff\JJ)	.	.
=27	=27	=27	=27	=27
2.CC/] 2.C]	.	16b-\LL	.	.
.	.	16dd-X\	.	.
.	.	16gg\	.	.
.	.	16a-X\	.	.
.	.	16cc\	.	.
.	.	16ff\JJ	.	.
.	.	16g/LL	.	.
.	.	16b-/	.	.
.	.	16ee/	.	.
.	.	16f/	.	.
.	.	16a-X/	.	.
.	.	16dd-X/JJ	.	.
=28	=28	=28	=28	=28
!	!	!LO:TX:b:i:t=ben marcato	!	!
[2.CC/ [2.C	.	16e/LL	.	.
.	.	16g/	.	.
.	.	16cc/	.	.
.	.	16d-X/	.	.
.	.	16e/	.	.
.	.	16b-/JJ	.	.
.	.	16c/LL	.	.
.	.	16e-X/	.	.
.	.	16a-X/	.	.
.	.	16B-/	.	.
.	.	16d-X/	.	.
.	.	16g/JJ	.	.
=29	=29	=29	=29	=29
*^	*	*	*	*
2.CC\] 2.C]	16A-X/LL	.	2.ryy	.	.
.	16c/	.	.	.	.
.	16f/	.	.	.	.
.	16G/	.	.	.	.
.	16B-/	.	.	.	.
.	16en/JJ	.	.	.	.
.	16F/LL	.	.	.	.
.	16A-X/	.	.	.	.
.	16d-X/	.	.	.	.
.	16F/	.	.	.	.
.	16A-/	.	.	.	.
.	16Bn/JJ	.	.	.	.
!!LO:PB:g=original
=30	=30	=30	=30	=30	=30
.	16qCC/	.	.	.	.
16E/LL	4.C\	.	2.ryy	.	.
16G/	.	.	.	.	.
16c/	.	.	.	.	.
16E/	.	.	.	.	.
16G/	.	.	.	.	.
16c/JJ	.	.	.	.	.
16F/LL	4.BBnt\	.	.	.	.
16G/	.	.	.	.	.
16d/	.	.	.	.	.
16F/	.	.	.	.	.
16G/	.	.	.	.	.
16d/JJ	.	.	.	.	.
.	32qqAA\LLL	.	.	.	.
.	32qqBB-\JJJ	.	.	.	.
=31	=31	=31	=31	=31	=31
16E/LL	4.C\	.	2.ryy	.	.
16G/	.	.	.	.	.
16c/	.	.	.	.	.
16E/	.	.	.	.	.
16G/	.	.	.	.	.
16c/JJ	.	.	.	.	.
16F/LL	4.DD-X\ 4.D-X	.	.	.	rfz
16Bn/	.	.	.	.	.
16f/	.	.	.	.	.
16F/	.	.	.	.	.
16B/	.	.	.	.	.
16f/JJ	.	.	.	.	.
*v	*v	*	*	*	*
=32	=32	=32	=32	=32
(((4.CC/ 4.C	.	(16G/LL	.	.
.	.	16c/	.	.
.	.	16e/	.	.
.	.	16g/	.	.
.	.	16c/	.	.
.	.	16e/JJ)	.	.
4CC/))) 4C	.	(16g/LL	.	.
.	.	16cc/	.	.
.	.	16e/	.	.
.	.	16g/	.	.
8r	.	16cc/	.	.
.	.	16ee/JJ)	.	.
=33	=33	=33	=33	=33
!	!	!LO:TX:b:i:t=calando	!	!
2.r	.	(16g\LL	.	.
.	.	16cc\	.	.
.	.	16ee\	.	.
.	.	16gg\	.	.
.	.	16ee\	.	.
!	!	!LO:TX:t=P:problem=przepełniona miara taktu	!	!
!	!	!LO:N:vis=16	!	!
!	!	!LO:MO:mod=16cccJJ	!	!
.	.	32cc\L	.	.
!	!	!LO:N:vis=16	!	!
!	!	!LO:MO:null:mod=.	!	!
.	.	32ccc\JJJ	.	.
.	.	16bb-\LL	.	.
.	.	16gg\	.	.
.	.	16ee\	.	.
.	.	16cc\	.	.
.	.	16b-\	.	.
.	.	16g\JJ)	.	.
=34	=34	=34	=34	=34
!	!	!LO:TX:b:i:t=piano e legato	!	!
16qFF/	.	.	.	.
16F\LL	.	16g#X/LL	2	.
16A\	.	16a/	3	.
16c\JJ	.	16b-/	4	.
16r	.	16a/	3	.
8r	.	16g#/	2	.
.	.	16a/JJ	3	.
16qFF/	.	.	.	.
16F\LL	.	16gn/LL	2	.
16A\	.	16f/	1	.
16c\JJ	.	16e/	2	.
16r	.	16f/	1	.
8r	.	16dd/	5	.
.	.	16cc/JJ	4	.
!!LO:LB:g=original
=35	=35	=35	=35	=35
16qAA/	.	.	.	.
16A\LL	.	16g#X\LL	2	.
16c\	.	16a\	1	.
16f\JJ	.	16bb-\	5	.
16r	.	16aa\	-	.
8r	.	16ggn\	4	.
.	.	16ff\JJ	3	.
16qBB-/	.	.	.	.
16B-\LL	.	16ee\LL	2	.
16d\	.	16dd\	1	.
16g\JJ	.	16cc#X\	2	.
16r	.	16dd\	3	.
8r	.	16ee\	4	.
.	.	16dd\JJ	3	.
=36	=36	=36	=36	=36
16qBB-/	.	.	.	.
16B-\LL	.	16ccn\LL	1	.
16d\	.	16b-\	3	.
16g\JJ	.	16a\	2	.
16r	.	16b-\	3	.
8r	.	16cc\	4	.
.	.	16b-\JJ	3	.
16qBBB-/	.	.	.	.
16BB-\LL	.	16a\LL	2	.
16D\	.	16g\	1	.
16G\JJ	.	16f#X\	2	.
16r	.	16g\	1	.
8r	.	16.bb-\	5	.
.	.	32gg\JJk	4	.
=37	=37	=37	=37	=37
16qCC/	.	.	.	.
16C\LL	.	16ff\LL	3	.
16B-\	.	16ee\	2	.
16c\JJ	.	16dd\	1	.
16r	.	16cc\	3	.
8r	.	16b-^<\ 16ee	.	.
.	.	16cc\JJ	.	.
16qFF/	.	.	.	.
16F\LL	.	8a\ 8ff	.	.
16A\	.	.	.	.
!	!	!LO:N:vis=8	!	!
16c\JJ	.	16r	.	.
16r	.	16g#X/LL	.	.
8r	.	16a/	.	.
.	.	16cc#X/JJ	.	.
=38	=38	=38	=38	=38
16qC#X/	.	.	.	.
16c#X\LL	.	8ee\	.	.
16e\ 16g	.	.	.	.
16a\JJ	.	16r	.	.
16r	.	16gg#X\LL	.	.
8r	.	16bb-\	.	.
.	.	16aa\JJ	.	.
16qD/	.	.	.	.
16d\LL	.	8dd\ 8ff	.	.
16f\	.	.	.	.
16a\JJ	.	16r	.	.
16r	.	16gg#X\LL	.	.
8r	.	16bb-\	.	.
.	.	16aa\JJ	.	.
!!LO:LB:g=original
=39	=39	=39	=39	=39
16qBBn/	.	.	.	.
16Bn\LL	.	8dd\ 8ff	.	.
16f\	.	.	.	.
16g\JJ	.	16r	.	.
16r	.	16ff#X\LL	.	.
8r	.	16aa\	.	.
.	.	16gg\JJ	.	.
16qC/	.	.	.	.
16c\LL	.	8cc\ 8ee	.	.
16e\	.	.	.	.
16g\JJ	.	16r	.	.
16r	.	16ff#X\LL	.	.
8r	.	16aa\	.	.
.	.	16gg\JJ	.	.
=40	=40	=40	=40	=40
16qGG/	.	.	.	.
16G\LL	.	8dd\ 8ffn 8bbn	.	f
16d\	.	.	.	.
16f\JJ	.	16r	.	.
16r	.	16bb\LL	.	.
8r	.	16aa\	.	.
.	.	16gg\JJ	.	.
16qGG/	.	.	.	.
16G\LL	.	8cc\L 8ee [8ccc	.	.
16c\	.	.	.	.
16e\JJ	.	16ccc\L]	.	.
16r	.	16bbn\	.	.
8r	.	16aa\	.	.
.	.	16gg\JJ	.	.
=41	=41	=41	=41	=41
16qGGG/	.	.	.	.
16GG\LL	.	8bn\L 8dd [8aa	.	.
16BBn\	.	.	.	.
16G\JJ	.	16aa\L]	.	.
16r	.	16gg\	.	.
8r	.	16ff\	.	.
.	.	16dd\JJ	.	.
16qCC/	.	.	.	.
16C\LL	.	8e\L 8g [8dd	.	.
16B-\	.	.	.	.
16c\JJ	.	(16dd\L]	.	.
16r	.	16cc\	.	.
8r	.	16b-X\	.	.
.	.	16g\JJ)	.	.
=42	=42	=42	=42	=42
16qFF/	.	.	.	.
16F\LL	.	8f/	.	.
16A\	.	.	.	.
16c\JJ	.	16r	.	.
16r	.	(16dd^\LL	.	.
8r	.	16cc\	.	.
.	.	16a\JJ)	.	.
16qFF/	.	.	.	.
16F\LL	.	8f/	.	.
16A\	.	.	.	.
16c\JJ	.	16r	.	.
16r	.	(16gg^\LL	.	.
8r	.	16ff\	.	.
.	.	16cc\JJ)	.	.
=43	=43	=43	=43	=43
16qAA/	.	.	.	.
16A\LL	.	8a/	.	.
16c\	.	.	.	.
16f\JJ	.	16r	.	.
16r	.	(16aa^\LL	.	.
8r	.	16gg\	.	.
.	.	16ff\JJ)	.	.
16qBB-/	.	.	.	.
16B-\LL	.	16ee\LL	.	.
16d\	.	16dd\JJ	.	.
16g\JJ	.	16r	.	.
16r	.	(16ee^\LL	.	.
8r	.	16dd\	.	.
.	.	16b-\JJ)	.	.
!!LO:LB:g=original
=44	=44	=44	=44	=44
16qBB-X/	.	.	.	.
16B-\LL	.	8g/	.	.
16d\	.	.	.	.
16g\JJ	.	16r	.	.
16r	.	(16aa^\LL	.	.
8r	.	16gg\	.	.
.	.	16dd\JJ)	.	.
16qBB-/	.	.	.	.
16B-\LL	.	8b-\LL	.	.
16d-X\	.	.	.	.
16g\JJ	.	8ddd-X^\	.	.
!	!	!LO:N:vis=8	!	!
16r	.	.	.	.
8r	.	16ccc\	.	.
.	.	16bb-\JJ	.	.
=45	=45	=45	=45	=45
16qCC/	.	.	.	.
16C\LL	.	(16aa-X\LL	.	.
16B-\	.	16gg\	.	.
16c\JJ	.	16ff\	.	.
16r	.	16dd-X^\ 16ee 16gg	.	.
8r	.	16cc\	.	.
.	.	16g^\JJ) 16b- 16ee 16gg	.	.
(16FFF/LL	.	[4.a\ [4.ff	.	<
16AAA/	.	.	.	.
16CC/	.	.	.	.
16FF/	.	.	.	.
16AA/	.	.	.	.
16C/JJ)	.	.	.	.
=46	=46	=46	=46	=46
16F\LL	.	8.a\L] 8.ff]	.	[
16A\	.	.	.	.
16c\JJ	.	.	.	.
16r	.	16ee^<\L	.	.
8r	.	16gg\	.	.
.	.	16ff\JJ	.	.
16qFF/	.	.	.	.
16F\LL	.	8.a\L	.	.
16e-X\	.	.	.	.
16f\JJ	.	.	.	.
16r	.	16ee-X\L	.	.
8r	.	16gg\	.	.
.	.	16ff\JJ	.	.
=47	=47	=47	=47	=47
16qFF/	.	.	.	.
16F\LL	.	8.b-\L	.	.
16d\	.	.	.	.
16f\JJ	.	.	.	.
16r	.	16een\L	.	.
8r	.	16gg\	.	.
.	.	16ff\JJ	.	.
16qFF/	.	.	.	.
16F\LL	.	8.b-\L	.	.
16d-X\	.	.	.	.
16e\JJ	.	.	.	.
16r	.	16dd-X\L	.	.
8r	.	16ff\	.	.
.	.	16ee\JJ	.	.
=48	=48	=48	=48	=48
16qFF/	.	.	.	.
16F\LL	.	8.a\L	.	.
16Bn\	.	.	.	.
16c^\JJ	.	.	.	.
16r	.	16cc\L	.	.
8r	.	16gg\	.	.
.	.	16ff\JJ	.	.
16qFF/	.	.	.	.
16F\LL	.	8.f\L	.	.
16A\	.	.	.	.
16c^\JJ	.	.	.	.
16r	.	16a\L	.	.
8r	.	16dd\	.	.
.	.	16cc\JJ	.	.
=49	=49	=49	=49	=49
16qFF/	.	.	.	.
16F\LL	.	8.e/L	.	.
16Bn\	.	.	.	.
16c^\JJ	.	.	.	.
16r	.	16g/L	.	.
8r	.	16dd/	.	.
.	.	16cc/JJ	.	.
16qFF/	.	.	.	.
16F\LL	.	8.e/L	.	.
16d-X\	.	.	.	.
16c^\JJ	.	.	.	.
16r	.	16g/L	.	.
8r	.	16dd-X/	.	.
.	.	16cc/JJ	.	.
=50	=50	=50	=50	=50
16qFFF/	.	.	.	.
16FF\LL	.	8.A</L	.	.
16E\	.	.	.	.
16F\JJ	.	.	.	.
16r	.	16c/L	.	.
8r	.	16g/	.	.
.	.	16f/JJ	.	.
16qFFF/	.	.	.	.
16FF\LL	.	8.A/L	.	.
16G-X\	.	.	.	.
16F\JJ	.	.	.	.
16r	.	16e-X/L	.	.
8r	.	16gn/	.	.
.	.	16f/JJ	.	.
=51	=51	=51	=51	=51
16qFFF/	.	.	.	.
16FF\LL	.	8.B-/L	.	.
16E\	.	.	.	.
16F\JJ	.	.	.	.
16r	.	16d/L	.	.
8r	.	16g/	.	.
.	.	16f/JJ	.	.
16qFFF/	.	.	.	.
16FF\LL	.	8.B-/L	.	.
16E\	.	.	.	.
16F\JJ	.	.	.	.
16r	.	16d-X/L	.	.
8r	.	16f/	.	.
.	.	16e/JJ	.	.
=52	=52	=52	=52	=52
16qqFFF/	.	.	.	.
16FF\LL	.	8.A/L	.	.
16E\	.	.	.	.
16F\JJ	.	.	.	.
16r	.	16c/L	.	.
8r	.	16g/	.	.
.	.	16f/JJ	.	.
16qFFF/	.	.	.	.
!	!	!LO:N:vis=8	!	!
16FF\LL	.	8.F</L	.	.
16BBn\	.	.	.	.
16C\JJ	.	.	.	.
16r	.	16A</L	.	.
8r	.	16d</	.	.
.	.	16c</JJ	.	.
!!LO:LB:g=original
=53	=53	=53	=53	=53
*^	*	*	*	*
.	16qFFF/	.	.	.	.
8.E/L	16FF\LL	.	2.ryy	.	.
.	16BBn\	.	.	.	.
.	16C\JJ	.	.	.	.
16G/L	16r	.	.	.	.
16d/	8r	.	.	.	.
16c/JJ	.	.	.	.	.
.	16qFFF/	.	.	.	.
8.E/L	16FF\LL	.	.	.	.
.	16BB-X\	.	.	.	.
.	16C\JJ	.	.	.	.
16G/L	16r	.	.	.	.
16d/	8r	.	.	.	.
16c/JJ	.	.	.	.	.
*v	*v	*	*	*	*
=54	=54	=54	=54	=54
16qFFF/	.	.	.	.
16FF\LL	.	8.A/L	.	.
16E\	.	.	.	.
16F\JJ	.	.	.	.
!	!	!LO:TX:b:i:t=per     -    den              -   do      -           si:mod=perdendosi	!	!
16r	.	16c/L	.	.
8r	.	16g/	.	.
.	.	16f/JJ	.	.
16qFFF/	.	.	.	.
16FF\LL	.	8.B-/L	.	.
16E\	.	.	.	.
16F\JJ	.	.	.	.
16r	.	16d-X/L	.	.
8r	.	16f/	.	.
.	.	16e/JJ	.	.
=55	=55	=55	=55	=55
16qFFF/	.	.	.	.
16FF\LL	.	8.A/L	.	.
16E\	.	.	.	.
16F\JJ	.	.	.	.
16r	.	16c/L	.	.
8r	.	16g/	.	.
.	.	16f/JJ	.	.
16qFFF/	.	.	.	.
16FF\LL	.	8.B-/L	.	.
16E\	.	.	.	.
16F\JJ	.	.	.	.
16r	.	16d-X/L	.	.
8r	.	16f/	.	.
.	.	16e/JJ	.	.
=56	=56	=56	=56	=56
16qFFF/	.	.	.	.
8FF\L	.	16A/LL	.	f
.	.	16f/	.	.
16qE/	.	.	.	.
8F\	.	16c/	.	.
.	.	16a/	.	.
16qFFF/	.	.	.	.
8FF\J	.	16f/	.	.
.	.	16c/JJ	.	.
16qE/	.	.	.	.
8F\L	.	16A/LL	.	.
.	.	16a/	.	.
16qFFF/	.	.	.	.
8FF\	.	16f/	.	.
.	.	16c/	.	.
16qE/	.	.	.	.
8F\J	.	16A/	.	.
.	.	16a/JJ	.	.
=57	=57	=57	=57	=57
4FFF/	.	4A/ 4c 4f	.	.
8r	.	8r	.	.
4C\ 4c	.	4cc\ 4ee 4gg 4ccc	.	.
8r	.	8r	.	.
=58	=58	=58	=58	=58
2FF;</ 2F	.	2f;\ 2a 2cc 2ff	.	.
!LO:TX:b:t= 3 0 4 3:mod=	!	!	!	!
4ryy	.	4ryy	.	.
==	==	==	==	==
*-	*-	*-	*-	*-
!!!system-decoration: {(s1,s2)}
!!!RDF**kern: >= above
!!!RDF**kern: <= below
!!!ENC: Anna Matuszewska
!!!END: 2020-07-20
!!!ENC-modern: Andrzej Borzym
!!!END-modern: 2022-08-30
!!!YEC: Copyright 2022 Narodowy Instytut Fryderyka Chopina (https://polishscores.org)
!!!YEM: License CC-BY-4.0 (https://creativecommons.org/licenses/by/4.0)
